Newaita-dark/.places-ubuntu/scalable/folder-remote.svg

<?xml version="1.0" encoding="UTF-8"?>
<svg xmlns="http://www.w3.org/2000/svg" xmlns:xlink="http://www.w3.org/1999/xlink" width="512pt" height="512pt" viewBox="0 0 512 512" version="1.1">
<defs>
<linearGradient id="linear0" gradientUnits="userSpaceOnUse" x1="254" y1="233.5" x2="254" y2="254.666672" gradientTransform="matrix(1.000095,0,0,1.000095,-0.000061041,215.020562)">
<stop offset="0" style="stop-color:rgb(0%,0%,0%);stop-opacity:0.27451;"/>
<stop offset="1" style="stop-color:rgb(0%,0%,0%);stop-opacity:0;"/>
</linearGradient>
<radialGradient id="radial0" gradientUnits="userSpaceOnUse" cx="450.908936" cy="189.579361" fx="450.908936" fy="189.579361" r="21.166656" gradientTransform="matrix(0.00000278673,-1.250119,-2.250215,-0.00000162462,865.843403,1017.525321)">
<stop offset="0" style="stop-color:rgb(0%,0%,0%);stop-opacity:0.313725;"/>
<stop offset="0.222222" style="stop-color:rgb(0%,0%,0%);stop-opacity:0.27451;"/>
<stop offset="1" style="stop-color:rgb(0%,0%,0%);stop-opacity:0;"/>
</radialGradient>
<radialGradient id="radial1" gradientUnits="userSpaceOnUse" cx="450.908936" cy="189.579361" fx="450.908936" fy="189.579361" r="21.166656" gradientTransform="matrix(-0.00000278673,1.250119,2.250215,0.00000162462,-357.794846,-120.439662)">
<stop offset="0" style="stop-color:rgb(0%,0%,0%);stop-opacity:0.313725;"/>
<stop offset="0.222222" style="stop-color:rgb(0%,0%,0%);stop-opacity:0.27451;"/>
<stop offset="1" style="stop-color:rgb(0%,0%,0%);stop-opacity:0;"/>
</radialGradient>
<radialGradient id="radial2" gradientUnits="userSpaceOnUse" cx="450.908936" cy="189.579361" fx="450.908936" fy="189.579361" r="21.166656" gradientTransform="matrix(-0.00000278673,-1.250119,2.250215,-0.00000162462,-357.794846,1017.525321)">
<stop offset="0" style="stop-color:rgb(0%,0%,0%);stop-opacity:0.313725;"/>
<stop offset="0.222222" style="stop-color:rgb(0%,0%,0%);stop-opacity:0.27451;"/>
<stop offset="1" style="stop-color:rgb(0%,0%,0%);stop-opacity:0;"/>
</radialGradient>
<radialGradient id="radial3" gradientUnits="userSpaceOnUse" cx="450.908936" cy="189.579361" fx="450.908936" fy="189.579361" r="21.166656" gradientTransform="matrix(0.00000278673,1.250119,-2.250215,0.00000162462,865.843372,-120.43967)">
<stop offset="0" style="stop-color:rgb(0%,0%,0%);stop-opacity:0.313725;"/>
<stop offset="0.222222" style="stop-color:rgb(0%,0%,0%);stop-opacity:0.27451;"/>
<stop offset="1" style="stop-color:rgb(0%,0%,0%);stop-opacity:0;"/>
</radialGradient>
<linearGradient id="linear1" gradientUnits="userSpaceOnUse" x1="296.333344" y1="233.5" x2="296.333344" y2="-147.5" gradientTransform="matrix(1.000095,0,0,1.000095,0,215.020531)">
<stop offset="0" style="stop-color:rgb(40.392157%,22.745098%,71.764706%);stop-opacity:1;"/>
<stop offset="1" style="stop-color:rgb(49.411765%,34.117647%,76.078431%);stop-opacity:1;"/>
</linearGradient>
<linearGradient id="linear2" gradientUnits="userSpaceOnUse" x1="254" y1="-147.5" x2="254" y2="233.5" gradientTransform="matrix(1.000095,0,0,1.000095,0,215.020527)">
<stop offset="0" style="stop-color:rgb(100%,54.117647%,39.607843%);stop-opacity:1;"/>
<stop offset="1" style="stop-color:rgb(100%,43.921569%,26.27451%);stop-opacity:1;"/>
</linearGradient>
<linearGradient id="linear3" gradientUnits="userSpaceOnUse" x1="949.999939" y1="1695.117188" x2="949.999939" y2="255.117172" gradientTransform="matrix(0.264583,0,0,0.264583,0.0000172667,-214.999741)">
<stop offset="0" style="stop-color:rgb(40.392157%,22.745098%,71.764706%);stop-opacity:1;"/>
<stop offset="1" style="stop-color:rgb(49.411765%,34.117647%,76.078431%);stop-opacity:1;"/>
</linearGradient>
</defs>
<g id="surface1">
<path style=" stroke:none;fill-rule:nonzero;fill:url(#linear0);" d="M 63.507812 448.542969 L 444.542969 448.542969 L 444.542969 469.710938 L 63.507812 469.710938 Z M 63.507812 448.542969 "/>
<path style=" stroke:none;fill-rule:nonzero;fill:url(#radial0);" d="M 444.542969 448.542969 L 486.878906 448.542969 L 486.878906 427.375 L 444.542969 427.375 Z M 444.542969 448.542969 "/>
<path style=" stroke:none;fill-rule:nonzero;fill:url(#radial1);" d="M 63.507812 448.542969 L 21.167969 448.542969 L 21.167969 469.710938 L 63.507812 469.710938 Z M 63.507812 448.542969 "/>
<path style=" stroke:none;fill-rule:nonzero;fill:url(#radial2);" d="M 63.507812 448.542969 L 21.167969 448.542969 L 21.167969 427.375 L 63.507812 427.375 Z M 63.507812 448.542969 "/>
<path style=" stroke:none;fill-rule:nonzero;fill:url(#radial3);" d="M 444.542969 448.542969 L 486.878906 448.542969 L 486.878906 469.710938 L 444.542969 469.710938 Z M 444.542969 448.542969 "/>
<path style=" stroke:none;fill-rule:nonzero;fill:url(#linear1);" d="M 116.429688 67.507812 L 460.417969 67.507812 C 472.109375 67.507812 481.585938 76.984375 481.585938 88.675781 L 481.585938 168.058594 C 481.585938 179.75 472.109375 189.226562 460.417969 189.226562 L 116.429688 189.226562 C 104.738281 189.226562 95.257812 179.75 95.257812 168.058594 L 95.257812 88.675781 C 95.257812 76.984375 104.738281 67.507812 116.429688 67.507812 Z M 116.429688 67.507812 "/>
<path style=" stroke:none;fill-rule:nonzero;fill:rgb(90.196079%,90.196079%,90.196079%);fill-opacity:0.588235;" d="M 116.429688 67.507812 C 104.699219 67.507812 95.257812 76.949219 95.257812 88.675781 L 95.257812 91.320312 C 95.257812 79.59375 104.699219 70.152344 116.429688 70.152344 L 460.417969 70.152344 C 472.144531 70.152344 481.585938 79.59375 481.585938 91.320312 L 481.585938 88.675781 C 481.585938 76.949219 472.144531 67.507812 460.417969 67.507812 Z M 116.429688 67.507812 "/>
<path style=" stroke:none;fill-rule:nonzero;fill:rgb(12.941177%,12.941177%,12.941177%);fill-opacity:1;" d="M 116.425781 66.007812 C 103.894531 66.007812 93.757812 76.140625 93.757812 88.675781 L 93.757812 168.058594 C 93.757812 180.589844 103.894531 190.726562 116.425781 190.726562 L 460.417969 190.726562 C 472.953125 190.726562 483.085938 180.589844 483.085938 168.058594 L 483.085938 88.675781 C 483.085938 76.140625 472.953125 66.007812 460.417969 66.007812 Z M 116.425781 69.007812 L 460.417969 69.007812 C 471.339844 69.007812 480.085938 77.753906 480.085938 88.675781 L 480.085938 168.058594 C 480.085938 178.980469 471.339844 187.726562 460.417969 187.726562 L 116.425781 187.726562 C 105.503906 187.726562 96.757812 178.980469 96.757812 168.058594 L 96.757812 88.675781 C 96.757812 77.753906 105.503906 69.007812 116.425781 69.007812 Z M 116.425781 69.007812 "/>
<path style=" stroke:none;fill-rule:nonzero;fill:url(#linear2);" d="M 42.335938 109.84375 C 30.609375 109.84375 21.167969 119.285156 21.167969 131.011719 L 21.167969 427.375 C 21.167969 439.101562 30.609375 448.542969 42.335938 448.542969 L 465.710938 448.542969 C 477.4375 448.542969 486.878906 439.101562 486.878906 427.375 L 486.878906 162.765625 L 201.101562 162.765625 C 189.375 162.765625 179.933594 153.324219 179.933594 141.597656 L 179.933594 109.84375 Z M 42.335938 109.84375 "/>
<path style=" stroke:none;fill-rule:nonzero;fill:rgb(0%,0%,0%);fill-opacity:0.196078;" d="M 42.335938 448.542969 C 30.609375 448.542969 21.167969 439.101562 21.167969 427.375 L 21.167969 424.726562 C 21.167969 436.457031 30.609375 445.898438 42.335938 445.898438 L 465.710938 445.898438 C 477.4375 445.898438 486.878906 436.457031 486.878906 424.726562 L 486.878906 427.375 C 486.878906 439.101562 477.4375 448.542969 465.710938 448.542969 Z M 42.335938 448.542969 "/>
<path style=" stroke:none;fill-rule:nonzero;fill:rgb(90.196079%,90.196079%,90.196079%);fill-opacity:0.937255;" d="M 42.335938 109.84375 C 30.609375 109.84375 21.167969 119.285156 21.167969 131.011719 L 21.167969 133.660156 C 21.167969 121.929688 30.609375 112.488281 42.335938 112.488281 L 179.933594 112.488281 L 179.933594 109.84375 Z M 42.335938 109.84375 "/>
<path style=" stroke:none;fill-rule:nonzero;fill:rgb(90.196079%,90.196079%,90.196079%);fill-opacity:0.937255;" d="M 199.78125 164.089844 C 188.050781 164.089844 178.609375 154.648438 178.609375 142.917969 L 178.609375 140.273438 C 178.609375 152 188.050781 161.464844 199.78125 161.441406 L 486.878906 161.441406 L 486.878906 164.089844 Z M 199.78125 164.089844 "/>
<path style=" stroke:none;fill-rule:nonzero;fill:rgb(12.941177%,12.941177%,12.941177%);fill-opacity:1;" d="M 42.335938 108.34375 C 29.804688 108.34375 19.667969 118.480469 19.667969 131.011719 L 19.667969 427.375 C 19.667969 439.90625 29.804688 450.042969 42.335938 450.042969 L 465.710938 450.042969 C 478.242188 450.042969 488.378906 439.90625 488.378906 427.375 L 488.378906 159.765625 L 201.101562 159.765625 C 190.179688 159.765625 181.433594 151.019531 181.433594 140.097656 L 181.433594 108.34375 Z M 42.335938 111.34375 L 178.433594 111.34375 L 178.433594 140.097656 C 178.433594 152.628906 188.570312 162.765625 201.101562 162.765625 L 485.378906 162.765625 L 485.378906 427.375 C 485.378906 438.296875 476.632812 447.042969 465.710938 447.042969 L 42.335938 447.042969 C 31.414062 447.042969 22.667969 438.296875 22.667969 427.375 L 22.667969 131.011719 C 22.667969 120.089844 31.414062 111.34375 42.335938 111.34375 Z M 42.335938 111.34375 "/>
<path style="fill-rule:nonzero;fill:url(#linear3);stroke-width:3;stroke-linecap:round;stroke-linejoin:miter;stroke:rgb(12.941177%,12.941177%,12.941177%);stroke-opacity:1;stroke-miterlimit:4;" d="M 190.501339 0.666905 C 184.638618 0.666905 179.916413 5.385204 179.916413 11.251832 L 179.916413 117.081569 C 179.916413 122.948196 184.638618 127.666496 190.501339 127.666496 L 201.08236 127.666496 L 201.08236 138.251422 C 201.08236 144.114144 205.804565 148.832443 211.667287 148.832443 L 296.334983 148.832443 C 302.197704 148.832443 306.916003 144.114144 306.916003 138.251422 L 306.916003 127.666496 L 317.50093 127.666496 C 323.363652 127.666496 328.081951 122.948196 328.081951 117.081569 L 328.081951 11.251832 C 328.081951 5.385204 323.363652 0.666905 317.50093 0.666905 Z M 206.374823 21.832852 L 214.311566 21.832852 L 214.311566 32.417779 C 214.311566 35.347187 216.670715 37.710242 219.604029 37.710242 L 224.896492 37.710242 C 227.8259 37.710242 230.188956 35.347187 230.188956 32.417779 L 230.188956 21.832852 L 235.477513 21.832852 L 235.477513 32.417779 C 235.477513 35.347187 237.840569 37.710242 240.769976 37.710242 L 246.06244 37.710242 C 248.995753 37.710242 251.354903 35.347187 251.354903 32.417779 L 251.354903 21.832852 L 256.647366 21.832852 L 256.647366 32.417779 C 256.647366 35.347187 259.006516 37.710242 261.935924 37.710242 L 267.228387 37.710242 C 270.161701 37.710242 272.520851 35.347187 272.520851 32.417779 L 272.520851 21.832852 L 277.813314 21.832852 L 277.813314 32.417779 C 277.813314 35.347187 280.172464 37.710242 283.105777 37.710242 L 288.394335 37.710242 C 291.327648 37.710242 293.686798 35.347187 293.686798 32.417779 L 293.686798 21.832852 L 301.62354 21.832852 C 304.556854 21.832852 306.916003 24.192002 306.916003 27.125316 L 306.916003 101.208085 C 306.916003 104.141399 304.556854 106.500548 301.62354 106.500548 L 285.750056 106.500548 L 285.750056 122.374032 C 285.750056 125.307346 283.390906 127.666496 280.457593 127.666496 L 227.540771 127.666496 C 224.611363 127.666496 222.248308 125.307346 222.248308 122.374032 L 222.248308 106.500548 L 206.374823 106.500548 C 203.44151 106.500548 201.08236 104.141399 201.08236 101.208085 L 201.08236 27.125316 C 201.08236 24.192002 203.44151 21.832852 206.374823 21.832852 Z M 206.374823 21.832852 " transform="matrix(1.000095,0,0,1.000095,0,215.020531)"/>
</g>
</svg>

<svg xmlns="http://www.w3.org/2000/svg" width="512pt" height="512pt" viewBox="0 0 512 512"><defs><linearGradient id="a" gradientUnits="userSpaceOnUse" x1="254" y1="233.5" x2="254" y2="254.667" gradientTransform="matrix(1.0001 0 0 1.0001 0 215.02)"><stop offset="0" stop-opacity=".275"/><stop offset="1" stop-opacity="0"/></linearGradient><radialGradient id="b" gradientUnits="userSpaceOnUse" cx="450.909" cy="189.579" fx="450.909" fy="189.579" r="21.167" gradientTransform="matrix(0 -1.25012 -2.25021 0 865.843 1017.525)"><stop offset="0" stop-opacity=".314"/><stop offset=".222" stop-opacity=".275"/><stop offset="1" stop-opacity="0"/></radialGradient><radialGradient id="c" gradientUnits="userSpaceOnUse" cx="450.909" cy="189.579" fx="450.909" fy="189.579" r="21.167" gradientTransform="matrix(0 1.25012 2.25021 0 -357.795 -120.44)"><stop offset="0" stop-opacity=".314"/><stop offset=".222" stop-opacity=".275"/><stop offset="1" stop-opacity="0"/></radialGradient><radialGradient id="d" gradientUnits="userSpaceOnUse" cx="450.909" cy="189.579" fx="450.909" fy="189.579" r="21.167" gradientTransform="matrix(0 -1.25012 2.25021 0 -357.795 1017.525)"><stop offset="0" stop-opacity=".314"/><stop offset=".222" stop-opacity=".275"/><stop offset="1" stop-opacity="0"/></radialGradient><radialGradient id="e" gradientUnits="userSpaceOnUse" cx="450.909" cy="189.579" fx="450.909" fy="189.579" r="21.167" gradientTransform="matrix(0 1.25012 -2.25021 0 865.843 -120.44)"><stop offset="0" stop-opacity=".314"/><stop offset=".222" stop-opacity=".275"/><stop offset="1" stop-opacity="0"/></radialGradient><linearGradient id="f" gradientUnits="userSpaceOnUse" x1="296.333" y1="233.5" x2="296.333" y2="-147.5" gradientTransform="matrix(1.0001 0 0 1.0001 0 215.02)"><stop offset="0" stop-color="#673ab7"/><stop offset="1" stop-color="#7e57c2"/></linearGradient><linearGradient id="g" gradientUnits="userSpaceOnUse" x1="254" y1="-147.5" x2="254" y2="233.5" gradientTransform="matrix(1.0001 0 0 1.0001 0 215.02)"><stop offset="0" stop-color="#ff8a65"/><stop offset="1" stop-color="#ff7043"/></linearGradient><linearGradient id="h" gradientUnits="userSpaceOnUse" x1="950" y1="1695.117" x2="950" y2="255.117" gradientTransform="matrix(.26458 0 0 .26458 0 -215)"><stop offset="0" stop-color="#673ab7"/><stop offset="1" stop-color="#7e57c2"/></linearGradient></defs><path d="M63.508 448.543h381.035v21.168H63.508zm0 0" fill="url(#a)"/><path d="M444.543 448.543h42.336v-21.168h-42.336zm0 0" fill="url(#b)"/><path d="M63.508 448.543h-42.34v21.168h42.34zm0 0" fill="url(#c)"/><path d="M63.508 448.543h-42.34v-21.168h42.34zm0 0" fill="url(#d)"/><path d="M444.543 448.543h42.336v21.168h-42.336zm0 0" fill="url(#e)"/><path d="M116.43 67.508h343.988c11.691 0 21.168 9.476 21.168 21.168v79.383c0 11.691-9.477 21.168-21.168 21.168H116.43c-11.692 0-21.172-9.477-21.172-21.168V88.676c0-11.692 9.48-21.168 21.172-21.168zm0 0" fill="url(#f)"/><path d="M116.43 67.508a21.123 21.123 0 0 0-21.172 21.168v2.644a21.123 21.123 0 0 1 21.172-21.168h343.988a21.122 21.122 0 0 1 21.168 21.168v-2.644a21.122 21.122 0 0 0-21.168-21.168zm0 0" fill="#e6e6e6" fill-opacity=".588"/><path d="M116.426 66.008c-12.531 0-22.668 10.133-22.668 22.668v79.383c0 12.53 10.137 22.668 22.668 22.668h343.992c12.535 0 22.668-10.137 22.668-22.668V88.676c0-12.535-10.133-22.668-22.668-22.668zm0 3h343.992a19.592 19.592 0 0 1 19.668 19.668v79.383a19.592 19.592 0 0 1-19.668 19.668H116.426a19.592 19.592 0 0 1-19.668-19.668V88.676a19.592 19.592 0 0 1 19.668-19.668zm0 0" fill="#212121"/><path d="M42.336 109.844a21.122 21.122 0 0 0-21.168 21.168v296.363a21.122 21.122 0 0 0 21.168 21.168H465.71a21.122 21.122 0 0 0 21.168-21.168v-264.61H201.102a21.122 21.122 0 0 1-21.168-21.167v-31.754zm0 0" fill="url(#g)"/><path d="M42.336 448.543a21.122 21.122 0 0 1-21.168-21.168v-2.648a21.123 21.123 0 0 0 21.168 21.171H465.71a21.123 21.123 0 0 0 21.168-21.171v2.648a21.122 21.122 0 0 1-21.168 21.168zm0 0" fill-opacity=".196"/><path d="M42.336 109.844a21.122 21.122 0 0 0-21.168 21.168v2.648a21.123 21.123 0 0 1 21.168-21.172h137.598v-2.644zm0 0M199.781 164.09a21.124 21.124 0 0 1-21.172-21.172v-2.645c0 11.727 9.442 21.192 21.172 21.168H486.88v2.649zm0 0" fill="#e6e6e6" fill-opacity=".937"/><path d="M42.336 108.344c-12.531 0-22.668 10.136-22.668 22.668v296.363c0 12.531 10.137 22.668 22.668 22.668H465.71c12.531 0 22.668-10.137 22.668-22.668v-267.61H201.102a19.592 19.592 0 0 1-19.668-19.667v-31.754zm0 3h136.098v28.754c0 12.53 10.136 22.668 22.668 22.668h284.277v264.609a19.592 19.592 0 0 1-19.668 19.668H42.336a19.592 19.592 0 0 1-19.668-19.668V131.012a19.592 19.592 0 0 1 19.668-19.668zm0 0" fill="#212121"/><path d="M190.501.667a10.561 10.561 0 0 0-10.585 10.585v105.83a10.561 10.561 0 0 0 10.585 10.584h10.581v10.585a10.56 10.56 0 0 0 10.585 10.581h84.668a10.557 10.557 0 0 0 10.581-10.58v-10.586h10.585a10.558 10.558 0 0 0 10.581-10.584V11.252A10.558 10.558 0 0 0 317.501.667zm15.874 21.166h7.937v10.585c0 2.93 2.359 5.292 5.292 5.292h5.292a5.284 5.284 0 0 0 5.293-5.292V21.833h5.289v10.585a5.284 5.284 0 0 0 5.292 5.292h5.292a5.282 5.282 0 0 0 5.293-5.292V21.833h5.292v10.585a5.28 5.28 0 0 0 5.289 5.292h5.292a5.282 5.282 0 0 0 5.293-5.292V21.833h5.292v10.585c0 2.93 2.36 5.292 5.293 5.292h5.288a5.282 5.282 0 0 0 5.293-5.292V21.833h7.937a5.28 5.28 0 0 1 5.292 5.292v74.083a5.28 5.28 0 0 1-5.292 5.293H285.75v15.873a5.28 5.28 0 0 1-5.292 5.292H227.54a5.282 5.282 0 0 1-5.293-5.292v-15.873h-15.873a5.28 5.28 0 0 1-5.293-5.293V27.125a5.28 5.28 0 0 1 5.293-5.292zm0 0" transform="matrix(1.0001 0 0 1.0001 0 215.02)" fill="url(#h)" stroke-width="3" stroke-linecap="round" stroke="#212121"/></svg>
